icons/unity-panel/24x24/panel/nm-signal-50-secure.svg

<svg version="1.0" viewBox="0 0 24 24" xmlns="http://www.w3.org/2000/svg">
 <path class="ColorScheme-Text" d="m19 15c-1.108 0-2 0.892-2 2v1h-1v4h6v-4h-1v-1c0-1.108-0.892-2-2-2zm0 1c0.554 0 1 0.446 1 1v1h-2v-1c0-0.554 0.446-1 1-1z" color="#31363b" fill="#F9F9F9"/>
 <path d="m12.001 3c-3.7463-9e-4 -7.4938 1.1917-10.623 3.5801l-0.37846 0.29101 0.29173 0.375 10.705 13.754 11.003-14.125-0.38043-0.28906c-3.1276-2.3899-6.8723-3.585-10.619-3.5859zm0 0.94531c3.3853 8.3e-4 6.7551 1.0654 9.631 3.1328l-4.3641 5.6055a9.2902 9.2009 0 0 0-10.538-4e-3l-4.3641-5.6055c2.877-2.066 6.2497-3.1297 9.635-3.1289z" color="#000000" color-rendering="auto" fill="#F9F9F9" image-rendering="auto" shape-rendering="auto" solid-color="#000000" style="font-feature-settings:normal;font-variant-alternates:normal;font-variant-caps:normal;font-variant-ligatures:none;font-variant-numeric:normal;font-variant-position:normal;isolation:auto;mix-blend-mode:normal;shape-padding:0;text-decoration-color:#000000;text-decoration-line:none;text-decoration-style:solid;text-indent:0;text-transform:none;white-space:normal"/>
</svg>

<svg version="1.0" viewBox="0 0 24 24" xmlns="http://www.w3.org/2000/svg"><path class="ColorScheme-Text" d="M19 15c-1.108 0-2 .892-2 2v1h-1v4h6v-4h-1v-1c0-1.108-.892-2-2-2zm0 1c.554 0 1 .446 1 1v1h-2v-1c0-.554.446-1 1-1z" color="#31363b" fill="#F9F9F9"/><path d="M12.001 3A17.478 17.478 0 0 0 1.378 6.58L1 6.871l.291.375L11.996 21 23 6.875l-.38-.289A17.47 17.47 0 0 0 11.999 3zm0 .945c3.385.001 6.755 1.066 9.631 3.133l-4.364 5.606A9.29 9.2 0 0 0 6.73 12.68L2.366 7.074C5.243 5.008 8.616 3.944 12 3.945z" color="#000" fill="#F9F9F9" style="font-feature-settings:normal;font-variant-alternates:normal;font-variant-caps:normal;font-variant-ligatures:none;font-variant-numeric:normal;font-variant-position:normal;isolation:auto;mix-blend-mode:normal;shape-padding:0;text-decoration-color:#000;text-decoration-line:none;text-decoration-style:solid;text-indent:0;text-transform:none;white-space:normal"/></svg>
